app/assets/images/remix_icon/user/women-fill.svg

<svg viewBox="0 0 24 24" xmlns="http://www.w3.org/2000/svg"><path d="M11 15.9339C7.33064 15.445 4.5 12.3031 4.5 8.5C4.5 4.35786 7.85786 1 12 1C16.1421 1 19.5 4.35786 19.5 8.5C19.5 12.3031 16.6694 15.445 13 15.9339V18H18V20H13V24H11V20H6V18H11V15.9339Z"/></svg>

<svg xmlns="http://www.w3.org/2000/svg" viewBox="0 0 24 24">
    <g>
        <path fill="none" d="M0 0h24v24H0z"/>
        <path d="M11 15.934A7.501 7.501 0 0 1 12 1a7.5 7.5 0 0 1 1 14.934V18h5v2h-5v4h-2v-4H6v-2h5v-2.066z"/>
    </g>
</svg>
